packages/core/src/svgs/tokens/mono/ASTROC.svg

<svg width="24" height="24" viewBox="0 0 24 24" fill="none" xmlns="http://www.w3.org/2000/svg">
<path fill-rule="evenodd" clip-rule="evenodd" d="M12.0353 20.8234C14.3587 20.8234 16.4764 19.9294 18.0529 18.4706H19.6823C17.8471 20.6294 15.0999 22 12.0353 22C10.7197 22.0023 9.41661 21.7455 8.20034 21.2441C6.98406 20.7429 5.87842 20.0069 4.94657 19.0784C4.01471 18.1497 3.27486 17.0467 2.76928 15.8322C2.26372 14.6177 2.00231 13.3155 2 12C2 6.47645 6.4941 2 12.0353 2C17.1764 2 21.4117 5.85293 22 10.8235H14.9411V14.9411H12.453L9.21763 12.8882L7.4294 14.9411H5.86469L8.21175 12.253L6.67057 11.2764C5.92352 10.8 6.25881 9.64706 7.14116 9.64706H10.4824L11.5883 8.08233C11.644 8.01884 11.7127 7.96811 11.7899 7.9336C11.867 7.89908 11.9507 7.8816 12.0353 7.88234H14.3942C14.7236 7.88234 14.9411 8.14705 14.9411 8.47057V9.64706H20.5706C20.05 7.78419 18.9338 6.14306 17.3925 4.97456C15.8511 3.80607 13.9695 3.17452 12.0353 3.17646C10.8743 3.17414 9.72406 3.40053 8.65056 3.8427C7.57701 4.28486 6.60106 4.93416 5.77846 5.75349C4.95583 6.57283 4.30265 7.54617 3.8562 8.61795C3.40976 9.68975 3.17878 10.839 3.17646 12C3.17646 16.8705 7.14116 20.8234 12.0294 20.8234H12.0353ZM9.45298 10.8235H8.15881L8.9941 11.3529L9.45298 10.8235ZM9.99994 11.9941L11.0177 10.8235H13.7647V13.7647H12.794L9.99994 11.9941ZM13.7647 9.64706H12.0471L12.3058 9.0588H13.7647V9.64706Z" fill="white"/>
</svg>

<svg xmlns="http://www.w3.org/2000/svg" width="24" height="24" fill="none" viewBox="0 0 24 24">
    <path fill="#fff" fill-rule="evenodd" d="M12.035 20.823a8.84 8.84 0 0 0 6.018-2.352h1.63A10.01 10.01 0 0 1 12.034 22 10.016 10.016 0 0 1 2 12C2 6.476 6.494 2 12.035 2c5.141 0 9.377 3.853 9.965 8.824h-7.059v4.117h-2.488l-3.235-2.053-1.789 2.053H5.865l2.347-2.688-1.541-.977c-.747-.476-.412-1.629.47-1.629h3.341l1.106-1.565a.6.6 0 0 1 .447-.2h2.36c.329 0 .546.265.546.589v1.176h5.63a8.854 8.854 0 0 0-8.536-6.47A8.84 8.84 0 0 0 3.176 12c0 4.87 3.965 8.823 8.853 8.823zm-2.582-10H8.159l.835.53zM10 11.994l1.018-1.17h2.747v2.94h-.971zm3.765-2.347h-1.718l.259-.588h1.459z" clip-rule="evenodd"/>
</svg>
